Papirus/22x22/places/folder-mail.svg

<?xml version="1.0" encoding="UTF-8" standalone="no"?>
<svg xmlns="http://www.w3.org/2000/svg" height="22" width="22" version="1">
 <path d="m 20.99975,19.500566 0,-9.9959575 c 0,-0.553775 -0.44939,-1.060759 -0.99999,-0.9995838 l -7.9999,0 -1.99998,0 -7.9999,0 C 1,8.5050247 1,9.4629754 1,9.4629754 L 1,19.500416 C 1,20.054181 1.44599,20.5 1.99998,20.5 l 17.99978,0 c 0.55399,0 0.99999,-0.445819 0.99999,-0.999584 z" style="opacity:0.2;fill:#000000;fill-opacity:1"/>
 <path style="fill:#4877b1;fill-opacity:1" d="M 1,17.00004 1,3.00022 C 1,2.44623 1.44939,1.93903 1.99998,2.00023 L 8,2.00023 C 9,2 9,2.80114 9,4.00021 l 11.05126,0 c 0,0 0.94873,0 0.94873,0.99998 l 0,11.99985 c 0,0.554 -0.44599,0.99999 -0.99998,0.99999 l -17.99978,0 c -0.55399,0 -0.99999,-0.44599 -0.99999,-0.99999 z"/>
 <path d="m 20.99975,18.500566 0,-9.9959575 c 0,-0.553775 -0.44939,-1.060759 -0.99999,-0.9995838 l -7.9999,0 -1.99998,0 -7.9999,0 C 1,7.5050247 1,8.4629754 1,8.4629754 L 1,18.500416 C 1,19.054181 1.44599,19.5 1.99998,19.5 l 17.99978,0 c 0.55399,0 0.99999,-0.445819 0.99999,-0.999584 z" style="opacity:0.2;fill:#000000;fill-opacity:1"/>
 <rect rx=".889" ry="1" y="6" x="3" height="8" width="16" style="opacity:1;fill:#dcdcdc;fill-opacity:1;"/>
 <path style="fill:#5294e2;fill-opacity:1" d="m 20.99975,19.000426 0,-9.9959675 c 0,-0.553765 -0.44939,-1.060749 -0.99999,-0.9995738 l -7.9999,0 -1.99998,0 -7.9999,0 C 1,8.0048847 1,8.9628254 1,8.9628254 L 1,19.000276 c 0,0.553765 0.44599,0.999584 0.99998,0.999584 l 17.99978,0 c 0.55399,0 0.99999,-0.445819 0.99999,-0.999584 z"/>
 <path style="opacity:0.1;fill:#ffffff;fill-opacity:1" d="M 2,2 C 1.44941,1.9388 1,2.44601 1,3 L 1,3.5 C 1,2.94601 1.44941,2.4388 2,2.5 l 6,0 c 1,-2.3e-4 1,0.80093 1,2 l 11.05078,0 c 0,0 0.94922,2e-5 0.94922,1 L 21,5 C 21,4.00002 20.05078,4 20.05078,4 L 9,4 C 9,2.80093 9,1.99977 8,2 Z"/>
 <path style="opacity:0.7" d="M 11.5,10 C 9.567,10 8,11.567 8,13.5 8,15.433 9.567,17 11.5,17 l 2.1875,0 c 0,0 0.4102,0 0.4375,-0.4375 0,-0.4375 -0.4375,-0.4375 -0.4375,-0.4375 l -2.1875,0 c -1.4498,0 -2.625,-1.1752 -2.625,-2.625 0,-1.4498 1.1752,-2.625 2.625,-2.625 1.4498,0 2.625,1.1752 2.625,2.625 l 0,0.4375 c 0,0.24162 -0.19588,0.4375 -0.4375,0.4375 -0.24162,0 -0.4375,-0.19588 -0.4375,-0.4375 l 0,-0.4375 c 0,-0.9665 -0.7835,-1.75 -1.75,-1.75 -0.9665,0 -1.75,0.7835 -1.75,1.75 0,0.9665 0.7835,1.75 1.75,1.75 0.4577,0 0.8708,-0.18062 1.1826,-0.46826 0.2495,0.2965 0.6175,0.468 1.005,0.468 0.725,0 1.3125,-0.5875 1.3125,-1.3125 l 0,-0.4375 c 0,-1.933 -1.567,-3.5 -3.5,-3.5 z m 0,2.625 c 0.48326,0 0.875,0.39176 0.875,0.875 0,0.48324 -0.39174,0.875 -0.875,0.875 -0.48326,0 -0.875,-0.39176 -0.875,-0.875 0,-0.48324 0.39174,-0.875 0.875,-0.875 z"/>
</svg>

<svg xmlns="http://www.w3.org/2000/svg" width="22" height="22" version="1">
 <rect style="opacity:0.2" width="20" height="12" x="1" y="8.5" rx="1" ry="1"/>
 <path style="fill:#4877b1" d="M 1,16 C 1,16.554 1.446,17 2,17 H 20 C 20.554,17 21,16.554 21,16 V 5 C 21,4.446 20.554,4 20,4 H 10 V 3 C 10,2.446 9.554,2 9,2 H 2 C 1.446,2 1,2.446 1,3"/>
 <rect style="opacity:0.2" width="20" height="12" x="1" y="7.5" rx="1" ry="1"/>
 <rect style="fill:#dcdcdc" width="16" height="8" x="3" y="6" rx="1" ry="1"/>
 <rect style="fill:#5294e2" width="20" height="12" x="1" y="8" rx="1" ry="1"/>
 <path style="opacity:0.1;fill:#ffffff" d="M 2,2 C 1.446,2 1,2.446 1,3 V 3.5 C 1,2.946 1.446,2.5 2,2.5 H 9 C 9.554,2.5 10,2.946 10,3.5 V 3 C 10,2.446 9.554,2 9,2 Z M 10,4 V 4.5 H 20 C 20.554,4.5 21,4.946 21,5.5 V 5 C 21,4.446 20.554,4 20,4 Z"/>
 <path style="opacity:0.7" d="M 11.5,10 C 9.567,10 8,11.567 8,13.5 8,15.433 9.567,17 11.5,17 H 13.688 C 13.688,17 14.098,17 14.125,16.562 14.125,16.125 13.688,16.125 13.688,16.125 H 11.5 C 10.05,16.125 8.875,14.95 8.875,13.5 8.875,12.05 10.05,10.875 11.5,10.875 12.95,10.875 14.125,12.05 14.125,13.5 V 13.938 C 14.125,14.179 13.929,14.375 13.688,14.375 13.446,14.375 13.25,14.179 13.25,13.938 V 13.5 C 13.25,12.534 12.467,11.75 11.5,11.75 10.534,11.75 9.75,12.534 9.75,13.5 9.75,14.467 10.534,15.25 11.5,15.25 11.958,15.25 12.371,15.069 12.683,14.782 12.932,15.078 13.3,15.25 13.688,15.25 14.413,15.25 15,14.662 15,13.937 V 13.5 C 15,11.567 13.433,10 11.5,10 Z M 11.5,12.625 C 11.983,12.625 12.375,13.017 12.375,13.5 12.375,13.983 11.983,14.375 11.5,14.375 11.017,14.375 10.625,13.983 10.625,13.5 10.625,13.017 11.017,12.625 11.5,12.625 Z"/>
</svg>
